packages/icons/raw/imported/TypeClosedHand.svg

<svg width="32" height="32" viewBox="0 0 32 32" fill="none" xmlns="http://www.w3.org/2000/svg">
<g filter="url(#filter0_d_2567:574)">
<path d="M11.1643 10.8153C11.6743 10.6241 12.6837 10.7409 12.9493 11.3147C13.2149 11.8884 13.3743 12.6322 13.3849 12.4516C13.3594 11.8884 13.4058 11.3243 13.5231 10.7728C13.582 10.6032 13.6786 10.4492 13.8056 10.3222C13.9326 10.1953 14.0866 10.0987 14.2562 10.0397C14.5719 9.93852 14.9076 9.91663 15.2337 9.97595C15.5588 10.0482 15.8462 10.2372 16.0412 10.5072C16.2851 11.1282 16.4251 11.7851 16.4556 12.4516C16.4851 11.8819 16.5851 11.318 16.7531 10.7728C16.9348 10.5269 17.1924 10.3477 17.4862 10.2628C17.8375 10.1993 18.1974 10.1993 18.5487 10.2628C18.8361 10.3603 19.0878 10.5416 19.2712 10.7834C19.4959 11.347 19.6321 11.942 19.6749 12.5472C19.6749 12.696 19.7493 12.1328 19.9831 11.7609C20.0732 11.4932 20.2661 11.2723 20.5191 11.1468C20.7722 11.0213 21.0647 11.0014 21.3324 11.0916C21.6001 11.1817 21.8211 11.3746 21.9466 11.6276C22.0721 11.8807 22.092 12.1732 22.0018 12.4409C22.0018 13.1422 22.0018 13.1103 22.0018 13.5778C22.0018 14.0453 22.0018 14.4491 22.0018 14.8528C21.961 15.4744 21.8758 16.0922 21.7468 16.7016C21.5759 17.218 21.3403 17.7107 21.0456 18.1678C20.529 18.745 20.1028 19.3969 19.7812 20.1016C19.6976 20.4493 19.6619 20.8067 19.6749 21.1641C19.6753 21.494 19.7182 21.8226 19.8024 22.1416C19.3681 22.1894 18.9299 22.1894 18.4956 22.1416C18.0812 22.0778 17.5606 21.2491 17.4331 20.9941C17.4007 20.9241 17.349 20.8648 17.2841 20.8232C17.2191 20.7817 17.1436 20.7596 17.0665 20.7596C16.9894 20.7596 16.9139 20.7817 16.8489 20.8232C16.784 20.8648 16.7323 20.9241 16.6999 20.9941C16.4662 21.3978 15.9562 22.1309 15.5843 22.1735C14.8831 22.2584 13.4062 22.1735 12.2481 22.1735C12.2481 22.1735 12.4499 21.1109 12.0143 20.7284C11.5787 20.3459 11.1324 19.8997 10.7924 19.6022L9.91057 18.6247C9.28989 18.0464 8.83503 17.3128 8.59307 16.4997C8.36994 15.501 8.39119 15.0122 8.59307 14.6191C8.81137 14.3129 9.13152 14.0945 9.49619 14.0028C9.80491 13.9484 10.1222 13.9703 10.4206 14.0666C10.6291 14.1539 10.8093 14.2973 10.9412 14.4809C11.1856 14.8103 11.2706 14.9697 11.1749 14.6085C11.0793 14.2472 10.8243 13.9816 10.7074 13.546C10.4807 13.0349 10.3441 12.4885 10.3037 11.931C10.325 11.6851 10.4208 11.4516 10.5784 11.2617C10.736 11.0719 10.9478 10.9346 11.1856 10.8685" fill="white"/>
<path d="M11.1643 10.8153C11.6743 10.6241 12.6837 10.7409 12.9493 11.3147C13.2149 11.8884 13.3743 12.6322 13.3849 12.4516C13.3594 11.8884 13.4058 11.3243 13.5231 10.7728C13.582 10.6032 13.6786 10.4492 13.8056 10.3222C13.9326 10.1953 14.0866 10.0987 14.2562 10.0397C14.5719 9.93852 14.9076 9.91663 15.2337 9.97595C15.5588 10.0482 15.8462 10.2372 16.0412 10.5072C16.2851 11.1282 16.4251 11.7851 16.4556 12.4516C16.4851 11.8819 16.5851 11.318 16.7531 10.7728C16.9348 10.5269 17.1924 10.3477 17.4862 10.2628C17.8375 10.1993 18.1974 10.1993 18.5487 10.2628C18.8361 10.3603 19.0878 10.5416 19.2712 10.7834C19.4959 11.347 19.6321 11.942 19.6749 12.5472C19.6749 12.696 19.7493 12.1328 19.9831 11.7609C20.0732 11.4932 20.2661 11.2723 20.5191 11.1468C20.7722 11.0213 21.0647 11.0014 21.3324 11.0916C21.6001 11.1817 21.8211 11.3746 21.9466 11.6276C22.0721 11.8807 22.092 12.1732 22.0018 12.4409C22.0018 13.1422 22.0018 13.1103 22.0018 13.5778C22.0018 14.0453 22.0018 14.4491 22.0018 14.8528C21.961 15.4744 21.8758 16.0922 21.7468 16.7016C21.5759 17.218 21.3403 17.7107 21.0456 18.1678C20.529 18.745 20.1028 19.3969 19.7812 20.1016C19.6976 20.4493 19.6619 20.8067 19.6749 21.1641C19.6753 21.494 19.7182 21.8226 19.8024 22.1416C19.3681 22.1894 18.9299 22.1894 18.4956 22.1416C18.0812 22.0778 17.5606 21.2491 17.4331 20.9941C17.4007 20.9241 17.349 20.8648 17.2841 20.8232C17.2191 20.7817 17.1436 20.7596 17.0665 20.7596C16.9894 20.7596 16.9139 20.7817 16.8489 20.8232C16.784 20.8648 16.7323 20.9241 16.6999 20.9941C16.4662 21.3978 15.9562 22.1309 15.5843 22.1734C14.8831 22.2584 13.4062 22.1734 12.2481 22.1734C12.2481 22.1734 12.4499 21.1109 12.0143 20.7284C11.5787 20.3459 11.1324 19.8997 10.7924 19.6022L9.91057 18.6247C9.28989 18.0464 8.83503 17.3128 8.59307 16.4997C8.36994 15.501 8.39119 15.0122 8.59307 14.6191C8.81137 14.3129 9.13152 14.0945 9.49619 14.0028C9.80491 13.9484 10.1222 13.9703 10.4206 14.0666C10.6291 14.1539 10.8093 14.2973 10.9412 14.4809C11.1856 14.8103 11.2706 14.9697 11.1749 14.6085C11.0793 14.2472 10.8243 13.9816 10.7074 13.546C10.4807 13.0349 10.3441 12.4885 10.3037 11.931C10.3129 11.6785 10.4008 11.4352 10.5551 11.2351C10.7094 11.0351 10.9224 10.8883 11.1643 10.8153V10.8153Z" stroke="black" stroke-width="0.75" stroke-linejoin="round"/>
<path d="M18.6018 19.0391V15.3628" stroke="black" stroke-width="0.75" stroke-linecap="round"/>
<path d="M16.4557 19.0497L16.4451 15.3628" stroke="black" stroke-width="0.75" stroke-linecap="round"/>
<path d="M14.3413 15.395L14.3626 19.0288" stroke="black" stroke-width="0.75" stroke-linecap="round"/>
</g>
<defs>
<filter id="filter0_d_2567:574" x="-2" y="0" width="36" height="36" filterUnits="userSpaceOnUse" color-interpolation-filters="sRGB">
<feFlood flood-opacity="0" result="BackgroundImageFix"/>
<feColorMatrix in="SourceAlpha" type="matrix" values="0 0 0 0 0 0 0 0 0 0 0 0 0 0 0 0 0 0 127 0" result="hardAlpha"/>
<feOffset dy="2"/>
<feGaussianBlur stdDeviation="1"/>
<feColorMatrix type="matrix" values="0 0 0 0 0 0 0 0 0 0 0 0 0 0 0 0 0 0 0.25 0"/>
<feBlend mode="normal" in2="BackgroundImageFix" result="effect1_dropShadow_2567:574"/>
<feBlend mode="normal" in="SourceGraphic" in2="effect1_dropShadow_2567:574" result="shape"/>
</filter>
</defs>
</svg>

<svg width="32" height="32" fill="none" xmlns="http://www.w3.org/2000/svg"><g filter="url(#a)"><path d="M11.164 10.815c.51-.19 1.52-.074 1.785.5.266.573.425 1.317.436 1.137a6.628 6.628 0 0 1 .138-1.68 1.189 1.189 0 0 1 .733-.732c.316-.101.652-.123.978-.064.325.072.612.261.807.531.244.621.384 1.278.415 1.945.03-.57.13-1.134.297-1.68.182-.245.44-.424.733-.51a2.987 2.987 0 0 1 1.063 0c.287.098.539.28.722.521.225.564.361 1.159.404 1.764 0 .149.074-.414.308-.786a1.065 1.065 0 1 1 2.019.68v2.412c-.041.621-.126 1.24-.255 1.849a6.44 6.44 0 0 1-.701 1.466 7.681 7.681 0 0 0-1.265 1.934c-.083.347-.12.705-.106 1.062 0 .33.043.659.127.978a5.972 5.972 0 0 1-1.306 0c-.415-.064-.935-.893-1.063-1.148a.405.405 0 0 0-.733 0c-.234.404-.744 1.137-1.116 1.18-.7.084-2.178 0-3.336 0 0 0 .202-1.063-.234-1.446-.435-.382-.882-.828-1.222-1.126l-.881-.977A4.76 4.76 0 0 1 8.593 16.5c-.223-.999-.202-1.488 0-1.88.218-.307.539-.525.903-.617.309-.055.626-.033.925.064.208.087.388.23.52.414.245.33.33.489.234.127-.096-.36-.35-.626-.468-1.062a4.847 4.847 0 0 1-.403-1.615 1.212 1.212 0 0 1 .882-1.063" fill="#fff"/><path d="M11.164 10.815c.51-.19 1.52-.074 1.785.5.266.573.425 1.317.436 1.137a6.628 6.628 0 0 1 .138-1.68 1.189 1.189 0 0 1 .733-.732c.316-.101.652-.123.978-.064.325.072.612.261.807.531.244.621.384 1.278.415 1.945.03-.57.13-1.134.297-1.68.182-.245.44-.424.733-.51a2.987 2.987 0 0 1 1.063 0c.287.098.539.28.722.521.225.564.361 1.159.404 1.764 0 .149.074-.414.308-.786a1.065 1.065 0 1 1 2.019.68v2.412c-.041.621-.126 1.24-.255 1.849a6.44 6.44 0 0 1-.701 1.466 7.681 7.681 0 0 0-1.265 1.934c-.083.347-.12.705-.106 1.062 0 .33.043.659.127.978a5.972 5.972 0 0 1-1.306 0c-.415-.064-.935-.893-1.063-1.148a.405.405 0 0 0-.733 0c-.234.404-.744 1.137-1.116 1.18-.7.084-2.178 0-3.336 0 0 0 .202-1.063-.234-1.446-.435-.382-.882-.828-1.222-1.126l-.881-.977A4.76 4.76 0 0 1 8.593 16.5c-.223-.999-.202-1.488 0-1.88.218-.307.539-.525.903-.617.309-.055.626-.033.925.064.208.087.388.23.52.414.245.33.33.489.234.127-.096-.36-.35-.626-.468-1.062a4.847 4.847 0 0 1-.403-1.615 1.212 1.212 0 0 1 .86-1.116Z" stroke="#000" stroke-width=".75" stroke-linejoin="round"/><path d="M18.602 19.04v-3.677M16.456 19.05l-.01-3.687M14.341 15.395l.022 3.634" stroke="#000" stroke-width=".75" stroke-linecap="round"/></g><defs><filter id="a" x="-2" y="0" width="36" height="36" filterUnits="userSpaceOnUse" color-interpolation-filters="sRGB"><feFlood flood-opacity="0" result="BackgroundImageFix"/><feColorMatrix in="SourceAlpha" values="0 0 0 0 0 0 0 0 0 0 0 0 0 0 0 0 0 0 127 0" result="hardAlpha"/><feOffset dy="2"/><feGaussianBlur stdDeviation="1"/><feColorMatrix values="0 0 0 0 0 0 0 0 0 0 0 0 0 0 0 0 0 0 0.25 0"/><feBlend in2="BackgroundImageFix" result="effect1_dropShadow_2567:574"/><feBlend in="SourceGraphic" in2="effect1_dropShadow_2567:574" result="shape"/></filter></defs></svg>
